X: 1
T: A Stor Mo Chroi
R: waltz
M: 3/4
L: 1/8
K: Emin
(G3/2A/2)|B3/2B/2 B2AB|(AG) (3(EDB,) D2-|
D4E3/2G/2|A3/2B/2(AGED)|(B,3/2A,/2)(B,D) E2|
[1E4:|[2E4-E E| (3(ED)E (3GAB d3/2e/2|
E3E (3(ED)E| (3(GAB) e3f| (3(edB) d3(e/2d/2)|
B3/2A/2 B3A/2B/2|(AG) (3(ED)B, D2-|
D2BA (3GED|(B,3A,) (B,D)|E2E4|]


Tune 5737	Setting 21960

